X:1
T:Title
%%score { ( 1 2 ) | 3 }
L:1/8
Q:1/4=92
M:4/4
K:Eb
V:1 treble nm="Grand Piano"
V:2 treble 
V:3 bass 
V:1
 B3 G z D E2 | c3 A G2 F2 | B2 c2 [Fd]2 [Ee]2 | [Af]6 z2 | d3 B e2 B2 | [EB]3 [EG] [CB]2 [CA]2 | %6
w: M.~W.~Stubbs * * *||||||
 E2 B[Q:1/4=81]A [CE]2 [=B,EF]2[Q:1/4=91][Q:1/4=89][Q:1/4=88][Q:1/4=86][Q:1/4=85][Q:1/4=83][Q:1/4=82][Q:1/4=79][Q:1/4=78][Q:1/4=76][Q:1/4=75][Q:1/4=73][Q:1/4=72][Q:1/4=70] | %7
w: |
 [B,EG]8 |] %8
w: |
V:2
 z4 F2 z2 | x8 | x8 | x8 | x8 | x8 | x8 | x8 |] %8
V:3
 [E,G,E]3 [E,B,E] .[A,C]2 [G,B,]2 | [A,CE]3 [A,CE] [A,B,D]2 [A,B,D]2 | %2
 [G,B,E]2 [F,=A,E]2 [B,,_A,]2 [C,G,]2 | [D,B,]6 z2 | [B,F]3 [A,DF][K:bass] [G,B,E]2 [G,B,E]2 | %5
 [C,G,]3 [C,G,] [A,,A,]2 [A,,A,]2 | [A,C]2 [A,C]2 A,,2 A,,2 | [E,,E,]8 |] %8

